icons/fill-new-office-doc-document-circle-close-delete.svg

<svg xmlns="http://www.w3.org/2000/svg" width="32px" height="32px" viewBox="0 0 32 32" version="1.1">
    <title>fill-new-office-doc-document-circle-close-delete</title>
    <g id="fill-new-office-doc-document-circle-close-delete" stroke-width="1" fill-rule="evenodd">
        <path d="M23,17 C26.8659932,17 30,20.1340068 30,24 C30,27.8659932 26.8659932,31 23,31 C19.1340068,31 16,27.8659932 16,24 C16,20.1340068 19.1340068,17 23,17 Z M27,2 C27.5522847,2 28,2.44771525 28,3 L28.00121,16.5163591 C26.570872,15.5585866 24.8506685,15 23,15 C18.0294373,15 14,19.0294373 14,24 C14,26.3053753 14.8667953,28.4082996 16.2922591,30.0006464 L5,30 C4.44771525,30 4,29.5522847 4,29 L4,3 C4,2.44771525 4.44771525,2 5,2 L27,2 Z M21.2071068,20.7928932 C20.8165825,20.4023689 20.1834175,20.4023689 19.7928932,20.7928932 C19.4023689,21.1834175 19.4023689,21.8165825 19.7928932,22.2071068 L21.585,24 L19.7928932,25.7928932 C19.4324093,26.1533772 19.4046797,26.7206082 19.7097046,27.1128994 L19.7928932,27.2071068 C20.1834175,27.5976311 20.8165825,27.5976311 21.2071068,27.2071068 L23,25.415 L24.7928932,27.2071068 C25.1533772,27.5675907 25.7206082,27.5953203 26.1128994,27.2902954 L26.2071068,27.2071068 C26.5976311,26.8165825 26.5976311,26.1834175 26.2071068,25.7928932 L24.415,24 L26.2071068,22.2071068 C26.5675907,21.8466228 26.5953203,21.2793918 26.2902954,20.8871006 L26.2071068,20.7928932 C25.8165825,20.4023689 25.1834175,20.4023689 24.7928932,20.7928932 L23,22.585 L21.2071068,20.7928932 Z M15,14 L11,14 C10.4477153,14 10,14.4477153 10,15 C10,15.5522847 10.4477153,16 11,16 L15,16 C15.5522847,16 16,15.5522847 16,15 C16,14.4477153 15.5522847,14 15,14 Z M21,8 L11,8 C10.4477153,8 10,8.44771525 10,9 C10,9.55228475 10.4477153,10 11,10 L21,10 C21.5522847,10 22,9.55228475 22,9 C22,8.44771525 21.5522847,8 21,8 Z" id="&#24418;&#29366;" />
    </g>
</svg>

<svg xmlns="http://www.w3.org/2000/svg" viewBox="0 0 32 32"><path fill="currentColor" d="M23 17a7 7 0 1 1 0 14 7 7 0 0 1 0-14m4-15a1 1 0 0 1 1 1l.001 13.516A9 9 0 0 0 16.292 30H5a1 1 0 0 1-1-1V3a1 1 0 0 1 1-1zm-5.793 18.793a1 1 0 0 0-1.414 1.414L21.585 24l-1.792 1.793a1 1 0 0 0-.083 1.32l.083.094a1 1 0 0 0 1.414 0L23 25.415l1.793 1.792a1 1 0 0 0 1.32.083l.094-.083a1 1 0 0 0 0-1.414L24.415 24l1.792-1.793a1 1 0 0 0 .083-1.32l-.083-.094a1 1 0 0 0-1.414 0L23 22.585zM15 14h-4a1 1 0 0 0 0 2h4a1 1 0 0 0 0-2m6-6H11a1 1 0 0 0 0 2h10a1 1 0 0 0 0-2"/></svg>
